X: 99
T:Paddy McNamara's Reel (#295)
M:4/4
L:1/8
S:Clinton's Irish Melodies 1840
R:Reel
K:G
B|c2 sBcs A2 a2|sefsge dBGB|c2 Bc A2 ge|dBGB A2 A:|
|:B|cecA (3cde cA|BdBG (3Bcd BG|cecA cege|dBGB A2 A:|
|:B|cdef sgasge|gage dBGB|cdef gbge|dBGB A2 A:||

